resources/svg/calculator.svg

<svg xmlns="http://www.w3.org/2000/svg" viewBox="0 0 15 15" fill="currentColor"><path fill-rule="evenodd" clip-rule="evenodd" d="M1 1.5A1.5 1.5 0 012.5 0h10A1.5 1.5 0 0114 1.5v12a1.5 1.5 0 01-1.5 1.5h-10A1.5 1.5 0 011 13.5v-12zM4 5h7V4H4v1zm0 4h1V8H4v1zm4 0H7V8h1v1zm2 0h1V8h-1v1zm-5 3H4v-1h1v1zm2 0h1v-1H7v1zm4 0h-1v-1h1v1z" fill="currentColor"/></svg>

<svg xmlns="http://www.w3.org/2000/svg" viewBox="0 0 15 15" fill="currentColor"><path fill-rule="evenodd" clip-rule="evenodd" d="M1 1.5C1 0.671573 1.67157 0 2.5 0H12.5C13.3284 0 14 0.671573 14 1.5V13.5C14 14.3284 13.3284 15 12.5 15H2.5C1.67157 15 1 14.3284 1 13.5V1.5ZM4 5H11V4H4V5ZM4 9H5V8H4V9ZM8 9H7V8H8V9ZM10 9H11V8H10V9ZM5 12H4V11H5V12ZM7 12H8V11H7V12ZM11 12H10V11H11V12Z" fill="black"/></svg>
